Newaita-dark/.places-mint/24/folder-script.svg

<?xml version="1.0" encoding="UTF-8"?>
<svg xmlns="http://www.w3.org/2000/svg" xmlns:xlink="http://www.w3.org/1999/xlink" width="24px" height="24px" viewBox="0 0 24 24" version="1.1">
<defs>
<linearGradient id="linear0" gradientUnits="userSpaceOnUse" x1="254" y1="233.5" x2="254" y2="254.666672" gradientTransform="matrix(0.0468795,0,0,0.0468795,-0.0000028613,10.07909)">
<stop offset="0" style="stop-color:rgb(0%,0%,0%);stop-opacity:0.27451;"/>
<stop offset="1" style="stop-color:rgb(0%,0%,0%);stop-opacity:0;"/>
</linearGradient>
<radialGradient id="radial0" gradientUnits="userSpaceOnUse" cx="450.908936" cy="189.579361" fx="450.908936" fy="189.579361" r="21.166656" gradientTransform="matrix(0.000000130628,-0.0585994,-0.105479,-0.0000000761539,40.58641,47.696501)">
<stop offset="0" style="stop-color:rgb(0%,0%,0%);stop-opacity:0.313726;"/>
<stop offset="0.222222" style="stop-color:rgb(0%,0%,0%);stop-opacity:0.27451;"/>
<stop offset="1" style="stop-color:rgb(0%,0%,0%);stop-opacity:0;"/>
</radialGradient>
<radialGradient id="radial1" gradientUnits="userSpaceOnUse" cx="450.908936" cy="189.579361" fx="450.908936" fy="189.579361" r="21.166656" gradientTransform="matrix(-0.000000130628,0.0585994,0.105479,0.0000000761539,-16.771633,-5.645608)">
<stop offset="0" style="stop-color:rgb(0%,0%,0%);stop-opacity:0.313726;"/>
<stop offset="0.222222" style="stop-color:rgb(0%,0%,0%);stop-opacity:0.27451;"/>
<stop offset="1" style="stop-color:rgb(0%,0%,0%);stop-opacity:0;"/>
</radialGradient>
<radialGradient id="radial2" gradientUnits="userSpaceOnUse" cx="450.908936" cy="189.579361" fx="450.908936" fy="189.579361" r="21.166656" gradientTransform="matrix(-0.000000130628,-0.0585994,0.105479,-0.0000000761539,-16.771633,47.696501)">
<stop offset="0" style="stop-color:rgb(0%,0%,0%);stop-opacity:0.313726;"/>
<stop offset="0.222222" style="stop-color:rgb(0%,0%,0%);stop-opacity:0.27451;"/>
<stop offset="1" style="stop-color:rgb(0%,0%,0%);stop-opacity:0;"/>
</radialGradient>
<radialGradient id="radial3" gradientUnits="userSpaceOnUse" cx="450.908936" cy="189.579361" fx="450.908936" fy="189.579361" r="21.166656" gradientTransform="matrix(0.000000130628,0.0585994,-0.105479,0.0000000761539,40.586408,-5.645608)">
<stop offset="0" style="stop-color:rgb(0%,0%,0%);stop-opacity:0.313726;"/>
<stop offset="0.222222" style="stop-color:rgb(0%,0%,0%);stop-opacity:0.27451;"/>
<stop offset="1" style="stop-color:rgb(0%,0%,0%);stop-opacity:0;"/>
</radialGradient>
<linearGradient id="linear1" gradientUnits="userSpaceOnUse" x1="254" y1="-147.5" x2="254" y2="-31.083334" gradientTransform="matrix(0.0468795,0,0,0.0468795,0.000000937315,10.079086)">
<stop offset="0" style="stop-color:rgb(64.313728%,64.313728%,64.313728%);stop-opacity:0;"/>
<stop offset="1" style="stop-color:rgb(100%,100%,100%);stop-opacity:0.196078;"/>
</linearGradient>
<linearGradient id="linear2" gradientUnits="userSpaceOnUse" x1="254" y1="233.5" x2="254" y2="-105.166656" gradientTransform="matrix(0.0468795,0,0,0.0468795,-0.0000013593,10.079087)">
<stop offset="0" style="stop-color:rgb(34.509805%,34.509805%,34.509805%);stop-opacity:0;"/>
<stop offset="1" style="stop-color:rgb(98.039216%,98.039216%,98.039216%);stop-opacity:0.196078;"/>
</linearGradient>
</defs>
<g id="surface1">
<path style=" stroke:none;fill-rule:nonzero;fill:url(#linear0);" d="M 2.976562 21.027344 L 20.839844 21.027344 L 20.839844 22.019531 L 2.976562 22.019531 Z M 2.976562 21.027344 "/>
<path style=" stroke:none;fill-rule:nonzero;fill:url(#radial0);" d="M 20.839844 21.027344 L 22.824219 21.027344 L 22.824219 20.03125 L 20.839844 20.03125 Z M 20.839844 21.027344 "/>
<path style=" stroke:none;fill-rule:nonzero;fill:url(#radial1);" d="M 2.976562 21.027344 L 0.992188 21.027344 L 0.992188 22.019531 L 2.976562 22.019531 Z M 2.976562 21.027344 "/>
<path style=" stroke:none;fill-rule:nonzero;fill:url(#radial2);" d="M 2.976562 21.027344 L 0.992188 21.027344 L 0.992188 20.03125 L 2.976562 20.03125 Z M 2.976562 21.027344 "/>
<path style=" stroke:none;fill-rule:nonzero;fill:url(#radial3);" d="M 20.839844 21.027344 L 22.824219 21.027344 L 22.824219 22.019531 L 20.839844 22.019531 Z M 20.839844 21.027344 "/>
<path style=" stroke:none;fill-rule:nonzero;fill:rgb(61.176473%,80.000001%,39.607844%);fill-opacity:1;" d="M 5.457031 3.164062 L 21.582031 3.164062 C 22.128906 3.164062 22.574219 3.609375 22.574219 4.15625 L 22.574219 7.878906 C 22.574219 8.425781 22.128906 8.871094 21.582031 8.871094 L 5.457031 8.871094 C 4.910156 8.871094 4.464844 8.425781 4.464844 7.878906 L 4.464844 4.15625 C 4.464844 3.609375 4.910156 3.164062 5.457031 3.164062 Z M 5.457031 3.164062 "/>
<path style=" stroke:none;fill-rule:nonzero;fill:url(#linear1);" d="M 5.457031 3.164062 L 21.582031 3.164062 C 22.128906 3.164062 22.574219 3.609375 22.574219 4.15625 L 22.574219 7.878906 C 22.574219 8.425781 22.128906 8.871094 21.582031 8.871094 L 5.457031 8.871094 C 4.910156 8.871094 4.464844 8.425781 4.464844 7.878906 L 4.464844 4.15625 C 4.464844 3.609375 4.910156 3.164062 5.457031 3.164062 Z M 5.457031 3.164062 "/>
<path style=" stroke:none;fill-rule:nonzero;fill:rgb(100%,100%,100%);fill-opacity:0.392157;" d="M 5.457031 3.230469 C 4.90625 3.230469 4.464844 3.671875 4.464844 4.222656 L 4.464844 4.347656 C 4.464844 3.796875 4.90625 3.355469 5.457031 3.355469 L 21.582031 3.355469 C 22.132812 3.355469 22.574219 3.796875 22.574219 4.347656 L 22.574219 4.222656 C 22.574219 3.671875 22.132812 3.230469 21.582031 3.230469 Z M 5.457031 3.230469 "/>
<path style=" stroke:none;fill-rule:nonzero;fill:rgb(12.941177%,12.941177%,12.941177%);fill-opacity:1;" d="M 5.457031 3.09375 C 4.871094 3.09375 4.394531 3.570312 4.394531 4.15625 L 4.394531 7.878906 C 4.394531 8.464844 4.871094 8.941406 5.457031 8.941406 L 21.582031 8.941406 C 22.167969 8.941406 22.644531 8.464844 22.644531 7.878906 L 22.644531 4.15625 C 22.644531 3.570312 22.167969 3.09375 21.582031 3.09375 Z M 5.457031 3.234375 L 21.582031 3.234375 C 22.09375 3.234375 22.503906 3.644531 22.503906 4.15625 L 22.503906 7.878906 C 22.503906 8.390625 22.09375 8.800781 21.582031 8.800781 L 5.457031 8.800781 C 4.945312 8.800781 4.535156 8.390625 4.535156 7.878906 L 4.535156 4.15625 C 4.535156 3.644531 4.945312 3.234375 5.457031 3.234375 Z M 5.457031 3.234375 "/>
<path style=" stroke:none;fill-rule:nonzero;fill:rgb(68.235296%,83.529413%,50.588238%);fill-opacity:1;" d="M 1.984375 5.148438 C 1.433594 5.148438 0.992188 5.589844 0.992188 6.140625 L 0.992188 20.03125 C 0.992188 20.582031 1.433594 21.027344 1.984375 21.027344 L 21.832031 21.027344 C 22.378906 21.027344 22.824219 20.582031 22.824219 20.03125 L 22.824219 7.628906 L 9.425781 7.628906 C 8.878906 7.628906 8.433594 7.1875 8.433594 6.636719 L 8.433594 5.148438 Z M 1.984375 5.148438 "/>
<path style=" stroke:none;fill-rule:nonzero;fill:url(#linear2);" d="M 1.984375 5.148438 C 1.433594 5.148438 0.992188 5.589844 0.992188 6.140625 L 0.992188 20.03125 C 0.992188 20.582031 1.433594 21.027344 1.984375 21.027344 L 21.832031 21.027344 C 22.378906 21.027344 22.824219 20.582031 22.824219 20.03125 L 22.824219 7.628906 L 9.425781 7.628906 C 8.878906 7.628906 8.433594 7.1875 8.433594 6.636719 L 8.433594 5.148438 Z M 1.984375 5.148438 "/>
<path style=" stroke:none;fill-rule:nonzero;fill:rgb(0%,0%,0%);fill-opacity:0.196078;" d="M 1.984375 21.027344 C 1.433594 21.027344 0.992188 20.582031 0.992188 20.03125 L 0.992188 19.910156 C 0.992188 20.457031 1.433594 20.902344 1.984375 20.902344 L 21.832031 20.902344 C 22.378906 20.902344 22.824219 20.457031 22.824219 19.910156 L 22.824219 20.03125 C 22.824219 20.582031 22.378906 21.027344 21.832031 21.027344 Z M 1.984375 21.027344 "/>
<path style=" stroke:none;fill-rule:nonzero;fill:rgb(100%,100%,100%);fill-opacity:0.392157;" d="M 1.984375 5.214844 C 1.433594 5.214844 0.992188 5.65625 0.992188 6.207031 L 0.992188 6.332031 C 0.992188 5.78125 1.433594 5.339844 1.984375 5.339844 L 8.433594 5.339844 L 8.433594 5.214844 Z M 1.984375 5.214844 "/>
<path style=" stroke:none;fill-rule:nonzero;fill:rgb(100%,100%,100%);fill-opacity:0.392157;" d="M 9.363281 7.757812 C 8.816406 7.757812 8.371094 7.316406 8.371094 6.765625 L 8.371094 6.640625 C 8.371094 7.191406 8.816406 7.632812 9.363281 7.632812 L 22.824219 7.632812 L 22.824219 7.757812 Z M 9.363281 7.757812 "/>
<path style=" stroke:none;fill-rule:nonzero;fill:rgb(12.941177%,12.941177%,12.941177%);fill-opacity:1;" d="M 1.984375 5.078125 C 1.398438 5.078125 0.921875 5.554688 0.921875 6.140625 L 0.921875 20.03125 C 0.921875 20.621094 1.398438 21.097656 1.984375 21.097656 L 21.832031 21.097656 C 22.417969 21.097656 22.894531 20.621094 22.894531 20.03125 L 22.894531 7.488281 L 9.425781 7.488281 C 8.914062 7.488281 8.503906 7.078125 8.503906 6.566406 L 8.503906 5.078125 Z M 1.984375 5.21875 L 8.363281 5.21875 L 8.363281 6.566406 C 8.363281 7.15625 8.839844 7.628906 9.425781 7.628906 L 22.753906 7.628906 L 22.753906 20.03125 C 22.753906 20.546875 22.34375 20.957031 21.832031 20.957031 L 1.984375 20.957031 C 1.472656 20.957031 1.0625 20.546875 1.0625 20.03125 L 1.0625 6.140625 C 1.0625 5.628906 1.472656 5.21875 1.984375 5.21875 Z M 1.984375 5.21875 "/>
<path style=" stroke:none;fill-rule:nonzero;fill:rgb(54.509807%,76.47059%,29.019609%);fill-opacity:1;" d="M 9.304688 9.585938 C 9.179688 9.585938 9.050781 9.636719 8.957031 9.734375 L 8.605469 10.082031 C 8.410156 10.277344 8.410156 10.589844 8.605469 10.785156 L 11.410156 13.589844 L 8.605469 16.398438 C 8.410156 16.59375 8.410156 16.90625 8.605469 17.101562 L 8.957031 17.449219 C 9.148438 17.644531 9.460938 17.644531 9.65625 17.449219 L 12.816406 14.292969 L 13.164062 13.941406 C 13.359375 13.75 13.359375 13.433594 13.164062 13.242188 L 12.816406 12.890625 L 9.65625 9.734375 C 9.558594 9.636719 9.433594 9.585938 9.304688 9.585938 Z M 12.402344 16.074219 C 12.128906 16.074219 11.90625 16.292969 11.90625 16.570312 L 11.90625 17.066406 C 11.90625 17.339844 12.128906 17.5625 12.402344 17.5625 L 14.882812 17.5625 C 15.160156 17.5625 15.378906 17.339844 15.378906 17.066406 L 15.378906 16.570312 C 15.378906 16.292969 15.160156 16.074219 14.882812 16.074219 Z M 12.402344 16.074219 "/>
<path style=" stroke:none;fill-rule:nonzero;fill:rgb(0%,0%,0%);fill-opacity:0.235294;" d="M 9.304688 9.585938 C 9.179688 9.585938 9.050781 9.636719 8.957031 9.734375 L 8.605469 10.082031 C 8.480469 10.207031 8.4375 10.375 8.46875 10.535156 C 8.488281 10.441406 8.535156 10.355469 8.605469 10.285156 L 8.957031 9.933594 C 9.050781 9.835938 9.179688 9.789062 9.304688 9.789062 C 9.433594 9.789062 9.558594 9.835938 9.65625 9.933594 L 12.816406 13.089844 L 13.164062 13.441406 C 13.238281 13.511719 13.28125 13.601562 13.300781 13.691406 C 13.332031 13.535156 13.289062 13.363281 13.164062 13.242188 L 12.816406 12.890625 L 9.65625 9.734375 C 9.558594 9.636719 9.433594 9.585938 9.304688 9.585938 Z M 11.3125 13.691406 L 8.605469 16.398438 C 8.480469 16.519531 8.4375 16.691406 8.46875 16.851562 C 8.488281 16.757812 8.535156 16.671875 8.605469 16.597656 L 11.410156 13.792969 Z M 12.402344 16.074219 C 12.128906 16.074219 11.90625 16.292969 11.90625 16.570312 L 11.90625 16.769531 C 11.90625 16.496094 12.128906 16.273438 12.402344 16.273438 L 14.882812 16.273438 C 15.160156 16.273438 15.378906 16.496094 15.378906 16.769531 L 15.378906 16.570312 C 15.378906 16.292969 15.160156 16.074219 14.882812 16.074219 Z M 12.402344 16.074219 "/>
<path style=" stroke:none;fill-rule:nonzero;fill:rgb(100%,100%,100%);fill-opacity:0.392157;" d="M 8.46875 10.519531 C 8.4375 10.675781 8.484375 10.839844 8.605469 10.960938 L 11.316406 13.675781 L 11.410156 13.582031 L 8.605469 10.777344 C 8.53125 10.703125 8.484375 10.613281 8.46875 10.519531 Z M 13.300781 13.675781 C 13.285156 13.769531 13.238281 13.859375 13.164062 13.933594 L 12.816406 14.285156 L 9.65625 17.441406 C 9.460938 17.636719 9.148438 17.636719 8.957031 17.441406 L 8.605469 17.089844 C 8.53125 17.019531 8.484375 16.929688 8.46875 16.832031 C 8.4375 16.988281 8.484375 17.15625 8.605469 17.277344 L 8.957031 17.628906 C 9.148438 17.824219 9.460938 17.824219 9.65625 17.628906 L 12.816406 14.472656 L 13.164062 14.121094 C 13.285156 14 13.332031 13.832031 13.300781 13.675781 Z M 11.90625 17.054688 L 11.90625 17.242188 C 11.90625 17.515625 12.128906 17.738281 12.402344 17.738281 L 14.882812 17.738281 C 15.160156 17.738281 15.378906 17.515625 15.378906 17.242188 L 15.378906 17.054688 C 15.378906 17.332031 15.160156 17.550781 14.882812 17.550781 L 12.402344 17.550781 C 12.128906 17.550781 11.90625 17.332031 11.90625 17.054688 Z M 11.90625 17.054688 "/>
<path style=" stroke:none;fill-rule:nonzero;fill:rgb(12.941177%,12.941177%,12.941177%);fill-opacity:1;" d="M 9.304688 9.515625 C 9.160156 9.515625 9.015625 9.574219 8.90625 9.683594 L 8.554688 10.035156 C 8.332031 10.253906 8.332031 10.613281 8.554688 10.835938 L 11.3125 13.589844 L 8.554688 16.347656 C 8.332031 16.570312 8.332031 16.929688 8.554688 17.148438 L 8.90625 17.5 C 9.125 17.722656 9.484375 17.722656 9.707031 17.5 L 13.214844 13.992188 C 13.4375 13.769531 13.4375 13.414062 13.214844 13.191406 L 9.707031 9.683594 C 9.597656 9.574219 9.449219 9.515625 9.304688 9.515625 Z M 9.304688 9.65625 C 9.414062 9.65625 9.523438 9.699219 9.609375 9.78125 L 12.765625 12.941406 L 13.117188 13.289062 C 13.285156 13.457031 13.285156 13.726562 13.117188 13.894531 L 12.765625 14.242188 L 9.609375 17.402344 C 9.441406 17.570312 9.171875 17.570312 9.003906 17.402344 L 8.65625 17.050781 C 8.488281 16.882812 8.488281 16.617188 8.65625 16.449219 L 11.511719 13.589844 L 8.65625 10.734375 C 8.488281 10.566406 8.488281 10.300781 8.65625 10.132812 L 9.003906 9.78125 C 9.089844 9.699219 9.199219 9.65625 9.304688 9.65625 Z M 12.402344 16.003906 C 12.089844 16.003906 11.835938 16.257812 11.835938 16.570312 L 11.835938 17.066406 C 11.835938 17.378906 12.089844 17.632812 12.402344 17.632812 L 14.882812 17.632812 C 15.195312 17.632812 15.449219 17.378906 15.449219 17.066406 L 15.449219 16.570312 C 15.449219 16.257812 15.195312 16.003906 14.882812 16.003906 Z M 12.402344 16.144531 L 14.882812 16.144531 C 15.121094 16.144531 15.308594 16.332031 15.308594 16.570312 L 15.308594 17.066406 C 15.308594 17.300781 15.121094 17.492188 14.882812 17.492188 L 12.402344 17.492188 C 12.167969 17.492188 11.976562 17.300781 11.976562 17.066406 L 11.976562 16.570312 C 11.976562 16.332031 12.167969 16.144531 12.402344 16.144531 Z M 12.402344 16.144531 "/>
</g>
</svg>

<svg xmlns="http://www.w3.org/2000/svg" width="24" height="24"><defs><linearGradient id="a" gradientUnits="userSpaceOnUse" x1="254" y1="233.5" x2="254" y2="254.667" gradientTransform="matrix(.04688 0 0 .04688 0 10.08)"><stop offset="0" stop-opacity=".275"/><stop offset="1" stop-opacity="0"/></linearGradient><radialGradient id="b" gradientUnits="userSpaceOnUse" cx="450.909" cy="189.579" fx="450.909" fy="189.579" r="21.167" gradientTransform="matrix(0 -.0586 -.10548 0 40.586 47.697)"><stop offset="0" stop-opacity=".314"/><stop offset=".222" stop-opacity=".275"/><stop offset="1" stop-opacity="0"/></radialGradient><radialGradient id="c" gradientUnits="userSpaceOnUse" cx="450.909" cy="189.579" fx="450.909" fy="189.579" r="21.167" gradientTransform="matrix(0 .0586 .10548 0 -16.772 -5.646)"><stop offset="0" stop-opacity=".314"/><stop offset=".222" stop-opacity=".275"/><stop offset="1" stop-opacity="0"/></radialGradient><radialGradient id="d" gradientUnits="userSpaceOnUse" cx="450.909" cy="189.579" fx="450.909" fy="189.579" r="21.167" gradientTransform="matrix(0 -.0586 .10548 0 -16.772 47.697)"><stop offset="0" stop-opacity=".314"/><stop offset=".222" stop-opacity=".275"/><stop offset="1" stop-opacity="0"/></radialGradient><radialGradient id="e" gradientUnits="userSpaceOnUse" cx="450.909" cy="189.579" fx="450.909" fy="189.579" r="21.167" gradientTransform="matrix(0 .0586 -.10548 0 40.586 -5.646)"><stop offset="0" stop-opacity=".314"/><stop offset=".222" stop-opacity=".275"/><stop offset="1" stop-opacity="0"/></radialGradient><linearGradient id="f" gradientUnits="userSpaceOnUse" x1="254" y1="-147.5" x2="254" y2="-31.083" gradientTransform="matrix(.04688 0 0 .04688 0 10.08)"><stop offset="0" stop-color="#a4a4a4" stop-opacity="0"/><stop offset="1" stop-color="#fff" stop-opacity=".196"/></linearGradient><linearGradient id="g" gradientUnits="userSpaceOnUse" x1="254" y1="233.5" x2="254" y2="-105.167" gradientTransform="matrix(.04688 0 0 .04688 0 10.08)"><stop offset="0" stop-color="#585858" stop-opacity="0"/><stop offset="1" stop-color="#fafafa" stop-opacity=".196"/></linearGradient><linearGradient id="h" gradientUnits="userSpaceOnUse" x1="243.417" y1="-147.5" x2="243.417" y2="233.5" gradientTransform="matrix(.04688 0 0 .04688 0 10.08)"><stop offset="0" stop-color="#a4a4a4" stop-opacity="0"/><stop offset="1" stop-color="#fff" stop-opacity=".196"/></linearGradient></defs><path d="M2.977 21.027H20.84v.993H2.977zm0 0" fill="url(#a)"/><path d="M20.84 21.027h1.984v-.996H20.84zm0 0" fill="url(#b)"/><path d="M2.977 21.027H.992v.993h1.985zm0 0" fill="url(#c)"/><path d="M2.977 21.027H.992v-.996h1.985zm0 0" fill="url(#d)"/><path d="M20.84 21.027h1.984v.993H20.84zm0 0" fill="url(#e)"/><path d="M5.457 3.164h16.125c.547 0 .992.445.992.992V7.88a.994.994 0 0 1-.992.992H5.457a.994.994 0 0 1-.992-.992V4.156c0-.547.445-.992.992-.992zm0 0" fill="#7cb342"/><path d="M5.457 3.164h16.125c.547 0 .992.445.992.992V7.88a.994.994 0 0 1-.992.992H5.457a.994.994 0 0 1-.992-.992V4.156c0-.547.445-.992.992-.992zm0 0" fill="url(#f)"/><path d="M5.457 3.164a.989.989 0 0 0-.992.992v.125c0-.55.441-.992.992-.992h16.125c.55 0 .992.441.992.992v-.125a.989.989 0 0 0-.992-.992zm0 0" fill="#e6e6e6" fill-opacity=".588"/><path d="M5.457 3.094c-.586 0-1.062.476-1.062 1.062V7.88c0 .586.476 1.062 1.062 1.062h16.125c.586 0 1.063-.476 1.063-1.062V4.156c0-.586-.477-1.062-1.063-1.062zm0 .14h16.125c.512 0 .922.41.922.922V7.88c0 .512-.41.922-.922.922H5.457a.919.919 0 0 1-.922-.922V4.156c0-.511.41-.922.922-.922zm0 0" fill="#212121"/><path d="M1.984 5.148a.989.989 0 0 0-.992.993v13.89c0 .551.442.996.992.996h19.848a.994.994 0 0 0 .992-.996V7.63H9.426a.991.991 0 0 1-.992-.992V5.148zm0 0" fill="#9ccc65"/><path d="M1.984 5.148a.989.989 0 0 0-.992.993v13.89c0 .551.442.996.992.996h19.848a.994.994 0 0 0 .992-.996V7.63H9.426a.991.991 0 0 1-.992-.992V5.148zm0 0" fill="url(#g)"/><path d="M1.984 21.027a.992.992 0 0 1-.992-.996v-.12c0 .546.442.991.992.991h19.848a.994.994 0 0 0 .992-.992v.121c0 .551-.445.996-.992.996zm0 0" fill-opacity=".196"/><path d="M1.984 5.148a.989.989 0 0 0-.992.993v.125c0-.551.442-.993.992-.993h6.45v-.125zm0 0M9.363 7.691a.991.991 0 0 1-.992-.992v-.125c0 .551.445.996.992.992h13.461v.125zm0 0" fill="#e6e6e6" fill-opacity=".937"/><path d="M1.984 5.078c-.586 0-1.062.477-1.062 1.063v13.89c0 .59.476 1.067 1.062 1.067h19.848c.586 0 1.063-.477 1.063-1.067V7.488H9.425a.919.919 0 0 1-.921-.922V5.078zm0 .14h6.38v1.348c0 .59.476 1.063 1.062 1.063h13.328V20.03a.92.92 0 0 1-.922.926H1.984a.92.92 0 0 1-.921-.926V6.141c0-.512.41-.922.921-.922zm0 0" fill="#212121"/><path d="M9.305 9.586a.486.486 0 0 0-.348.148l-.352.348a.495.495 0 0 0 0 .703l2.805 2.805-2.805 2.808a.495.495 0 0 0 0 .704l.352.347a.49.49 0 0 0 .7 0l3.16-3.156.347-.352a.49.49 0 0 0 0-.699l-.348-.351-3.16-3.157a.494.494 0 0 0-.351-.148zm3.097 6.488a.494.494 0 0 0-.496.496v.496c0 .274.223.497.496.497h2.48a.494.494 0 0 0 .497-.497v-.496a.492.492 0 0 0-.496-.496zm0 0" fill="#7cb342"/><path d="M9.305 9.586a.486.486 0 0 0-.348.148l-.352.348a.495.495 0 0 0 0 .703l2.805 2.805-2.805 2.808a.495.495 0 0 0 0 .704l.352.347a.49.49 0 0 0 .7 0l3.16-3.156.347-.352a.49.49 0 0 0 0-.699l-.348-.351-3.16-3.157a.494.494 0 0 0-.351-.148zm3.097 6.488a.494.494 0 0 0-.496.496v.496c0 .274.223.497.496.497h2.48a.494.494 0 0 0 .497-.497v-.496a.492.492 0 0 0-.496-.496zm0 0" fill="url(#h)"/><path d="M9.305 9.516a.566.566 0 0 0-.399.168l-.351.351a.563.563 0 0 0 0 .8l2.758 2.755-2.758 2.758a.563.563 0 0 0 0 .8l.351.352a.563.563 0 0 0 .801 0l3.508-3.508a.563.563 0 0 0 0-.8L9.707 9.683a.575.575 0 0 0-.402-.168zm0 .14c.11 0 .218.043.304.125l3.157 3.16.351.348a.427.427 0 0 1 0 .606l-.351.347-3.157 3.16a.427.427 0 0 1-.605 0l-.348-.351a.422.422 0 0 1 0-.602l2.856-2.86-2.856-2.855a.422.422 0 0 1 0-.601l.348-.352a.44.44 0 0 1 .3-.125zm3.097 6.348a.567.567 0 0 0-.566.566v.496c0 .313.254.567.566.567h2.48a.567.567 0 0 0 .567-.567v-.496a.567.567 0 0 0-.566-.566zm0 .14h2.48c.24 0 .427.188.427.426v.496a.424.424 0 0 1-.426.426h-2.48a.427.427 0 0 1-.426-.426v-.496c0-.238.191-.425.425-.425zm0 0" fill="#212121"/></svg>
